assets/images/simple-illustrations/simple-illustration__receipt-envelope.svg

<svg xmlns="http://www.w3.org/2000/svg" width="60" height="70" fill="none" viewBox="0 0 20 40"><path fill="#FFFAF0" stroke="#002140" stroke-miterlimit="10" stroke-width="1" d="M4.24562 24.8116H16.4398C16.4398 24.8116 18.1827 24.4833 18.1827 21.752V1.93261L15.8746 3.90919L14.0401 1.64844L12.2056 3.90919L10.1343 1.79052L8.01563 4.00391L6.2727 1.79052L4.5298 3.95655L2.4585 2.12206V11.2093L4.24878 24.8148L4.24562 24.8116Z"/><path fill="#FFA75A" stroke="#002140" stroke-linecap="round" stroke-linejoin="round" stroke-width="1" d="M19.25 9.22656H1.10083V38.6005H19.25V9.22656Z"/><path stroke="#002140" stroke-linecap="round" stroke-linejoin="round" stroke-width="1" d="M19.2499 38.5996C19.2499 38.5996 19.5499 36.5156 17.0397 36.5156H3.00792C1.15764 36.5156 1.09766 38.5996 1.09766 38.5996"/><path stroke="#002140" stroke-linecap="round" stroke-linejoin="round" stroke-width="1" d="M10.1754 9.22656V36.4661"/></svg>

<svg xmlns="http://www.w3.org/2000/svg" width="60" height="70" fill="none" viewBox="0 0 20 40"><path fill="#fffaf0" stroke="#002140" stroke-miterlimit="10" d="M4.246 24.812H16.44s1.743-.329 1.743-3.06V1.932L15.875 3.91 14.04 1.65l-1.834 2.26-2.072-2.118-2.118 2.213L6.273 1.79 4.53 3.957 2.458 2.122v9.087l1.79 13.606z"/><path fill="#ffa75a" stroke="#002140" stroke-linecap="round" stroke-linejoin="round" d="M19.25 9.227H1.1V38.6h18.15z"/><path stroke="#002140" stroke-linecap="round" stroke-linejoin="round" d="M19.25 38.6s.3-2.084-2.21-2.084H3.008c-1.85 0-1.91 2.084-1.91 2.084M10.175 9.227v27.24"/></svg>
